symbolic/22x22/panel/weather-clouds-night.svg

<svg xmlns="http://www.w3.org/2000/svg" width="22" height="22" version="1.1">
 <defs>
  <style id="current-color-scheme" type="text/css">
   .ColorScheme-Text { color:#323a41; } .ColorScheme-Highlight { color:#4285f4; } .ColorScheme-NeutralText { color:#ff9800; } .ColorScheme-PositiveText { color:#4caf50; } .ColorScheme-NegativeText { color:#f44336; }
  </style>
 </defs>
 <g transform="translate(-105.00001,-681.28997)">
  <path style="fill:currentColor" class="ColorScheme-Text" d="M 10.75 4.03125 C 7.98722 4.13269 5.4413 5.83583 4.4375 8.59375 C 3.91328 10.03403 3.8936869 11.535686 4.2792969 12.910156 C 4.6829969 11.592126 5.7637375 10.576502 7.1171875 10.226562 C 7.2872375 9.9363325 7.4887313 9.6669125 7.7070312 9.4140625 C 7.7175312 8.7038225 7.83741 7.98554 8.09375 7.28125 C 8.60791 5.8686 9.56819 4.77289 10.75 4.03125 z M 11.099609 8.7851562 C 9.5462994 8.7851562 8.2235769 9.7360912 7.6542969 11.082031 C 6.2084269 11.296981 5.0996094 12.529476 5.0996094 14.035156 C 5.0996094 15.692016 6.4427494 17.035156 8.0996094 17.035156 L 14.474609 17.035156 C 15.924359 17.035156 17.099609 15.859906 17.099609 14.410156 C 17.099609 13.062756 16.086517 11.958634 14.779297 11.808594 C 14.438377 10.088554 12.919759 8.7851562 11.099609 8.7851562 z" transform="translate(105.00001,681.28997)"/>
 </g>
</svg>

<svg xmlns="http://www.w3.org/2000/svg" width="22" height="22"><defs><style id="current-color-scheme" type="text/css"></style></defs><path style="fill:currentColor;color:#323a41" d="M10.75 4.031c-2.763.102-5.309 1.805-6.313 4.563a7.026 7.026 0 0 0-.158 4.316c.404-1.318 1.485-2.333 2.838-2.683.17-.29.372-.56.59-.813.01-.71.13-1.428.387-2.133.514-1.412 1.474-2.508 2.656-3.25zm.35 4.754c-1.554 0-2.876.951-3.446 2.297A2.986 2.986 0 0 0 5.1 14.035a3 3 0 0 0 3 3h6.375A2.625 2.625 0 0 0 17.1 14.41a2.618 2.618 0 0 0-2.32-2.601 3.759 3.759 0 0 0-3.68-3.024z"/></svg>
